X:1
T:Two Little Sisters
M:2/4
L:1/8
K:G
 B d/2d/2 dd| d e/2e/2 G2| BB A2| BB A2| B d/2d/2 dd| d e/2e/2 G2|\
 d/2 g f/2 ed| e3- e| e e/2e/2 ge| d B/2B/2 d3/2 G/2| B/2 d B/2 AG|\
 BG E2| GG GG| Gg e2| e2 G/2- G G/2| AA G2|
